packages/icons/src/assets/stop.svg

<svg width="16" height="16" viewBox="0 0 16 16" fill="currentColor" xmlns="http://www.w3.org/2000/svg">
<path d="M13.7509 3.63173C13.7509 3.14695 13.3594 2.75396 12.8765 2.75396H3.12352C2.64061 2.75396 2.24913 3.14695 2.24913 3.63173V12.3683C2.24939 12.8528 2.64077 13.246 3.12352 13.246H12.8765C13.3592 13.246 13.7506 12.8528 13.7509 12.3683V3.63173ZM15 12.3683C14.9997 13.5454 14.0491 14.5 12.8765 14.5H3.12352C1.95089 14.5 1.00026 13.5454 1 12.3683V3.63173C1 2.45441 1.95073 1.5 3.12352 1.5H12.8765C14.0493 1.5 15 2.45441 15 3.63173V12.3683Z"/>
</svg>

<svg xmlns="http://www.w3.org/2000/svg" width="16" height="16" viewBox="0 0 16 16"><path d="M13.75 3.632a.876.876 0 0 0-.873-.878H3.124a.876.876 0 0 0-.875.878v8.736c0 .485.392.878.875.878h9.753a.877.877 0 0 0 .874-.878zM15 12.368c0 1.177-.95 2.132-2.123 2.132H3.124A2.13 2.13 0 0 1 1 12.368V3.632C1 2.454 1.95 1.5 3.124 1.5h9.753C14.049 1.5 15 2.454 15 3.632z"/></svg>
